img/AO-Item-2.svg

<svg width="60" height="60" viewBox="0 0 60 60" fill="none" xmlns="http://www.w3.org/2000/svg">
<path d="M58.2277 46.9222C58.8396 47.5341 59.0976 48.1041 59.0136 48.6261L58.8816 49.544C58.5337 50.4199 58.0297 51.3618 57.3758 52.3638C56.7158 53.3717 55.9299 54.3496 55.0119 55.3155C54.094 56.2754 53.1161 57.1454 52.0662 57.9373C51.0163 58.7232 49.9664 59.3772 48.9224 59.9051C46.8226 60.1691 44.7048 59.8811 42.563 59.0532C40.4211 58.2133 38.4353 57.2774 36.5994 56.2334C31.1819 53.1737 26.0043 49.31 21.0667 44.6364C16.1291 39.9568 11.7794 35.1272 8.02375 30.1476C6.97384 28.5757 5.92392 26.8718 4.88 25.036C3.83009 23.2001 2.91216 21.4123 2.12623 19.6604C1.34029 17.9145 0.752339 16.2767 0.356371 14.7468C-0.0395968 13.2229 -0.105591 11.975 0.158387 11.0091C0.506359 10.1392 1.05831 9.17326 1.79625 8.12934C2.53419 7.08543 3.39212 6.09551 4.35205 5.17758C5.31197 4.25965 6.31989 3.43172 7.3698 2.68778C8.41972 1.94984 9.46963 1.43988 10.5135 1.1819H12.0854C12.7874 1.36189 13.3093 1.66187 13.6573 2.09983C14.0113 2.53779 14.4012 3.01776 14.8392 3.53971C16.939 6.94744 19.2968 10.4452 21.9186 14.0269C22.7946 15.4248 22.8785 16.8646 22.1826 18.3525C22.0086 18.6165 21.7446 19.0725 21.3967 19.7264C21.0427 20.3804 20.6707 21.0583 20.2808 21.7602C19.8848 22.4622 19.5788 23.1161 19.3628 23.7221C19.1408 24.334 19.1229 24.73 19.2968 24.904C21.5707 28.0477 24.1024 30.8015 26.8982 33.1593C29.694 35.5171 32.4478 38.0549 35.1536 40.7607C35.5915 40.9407 35.9395 40.9407 36.2035 40.7607C36.9894 40.3227 37.8653 39.8428 38.8253 39.3208C39.7852 38.7989 40.7451 38.3189 41.711 37.8809C43.0189 37.269 44.4648 37.359 46.0367 38.1449C47.7825 39.3688 49.5524 40.5687 51.3462 41.7506C53.1401 42.9325 54.862 44.1324 56.5238 45.3563C57.0458 45.7943 57.6157 46.3162 58.2277 46.9222ZM57.0458 29.3616C57.7477 29.3616 58.0957 29.0137 58.0957 28.3117C58.0957 20.4463 55.3419 13.7629 49.8404 8.25533C44.3328 2.75378 37.6493 0 29.784 0C29.082 0 28.7341 0.347972 28.7341 1.04991C28.7341 1.75186 29.082 2.09983 29.784 2.09983C37.1214 2.09983 43.2829 4.67962 48.2685 9.8332C53.4221 14.8128 56.0019 20.9743 56.0019 28.3177C55.9959 29.0136 56.3498 29.3616 57.0458 29.3616ZM48.6585 29.3616C49.3604 29.3616 49.7084 29.0137 49.7084 28.3117C49.7084 22.7202 47.7405 18.0465 43.8109 14.2848C40.0492 10.3552 35.3755 8.38732 29.784 8.38732C29.082 8.38732 28.7341 8.73529 28.7341 9.43723C28.7341 10.1392 29.082 10.4872 29.784 10.4872C34.6796 10.4872 38.8733 12.239 42.365 15.7307C45.8627 19.2284 47.6085 23.4221 47.6085 28.3117C47.6085 29.0136 47.9565 29.3616 48.6585 29.3616ZM40.2711 29.3616C40.9731 29.3616 41.3211 29.0137 41.3211 28.3117C41.3211 24.988 40.1871 22.2822 37.9133 20.1824C35.8135 17.9086 33.1077 16.7746 29.784 16.7746C29.082 16.7746 28.7341 17.1226 28.7341 17.8246C28.7341 18.5265 29.082 18.8745 29.784 18.8745C32.4058 18.8745 34.6316 19.7924 36.4674 21.6282C38.3033 23.4641 39.2212 25.6899 39.2212 28.3117C39.2212 29.0136 39.5692 29.3616 40.2711 29.3616Z" fill="white"/>
</svg>

<svg xmlns="http://www.w3.org/2000/svg" width="60" height="60" fill="none"><path fill="#fff" d="M58.23 46.92c.6.6.87 1.18.78 1.7l-.12.92c-.35.88-.85 1.82-1.5 2.82-.66 1-1.45 2-2.37 2.96-.9.96-1.88 1.83-2.93 2.62-1.05.78-2.1 1.44-3.15 1.97-2.1.27-4.22-.02-6.36-.85-2.14-.84-4.12-1.77-5.96-2.82-5.42-3.06-10.6-6.92-15.53-11.6-4.94-4.67-9.3-9.5-13.05-14.48-1.05-1.57-2.1-3.28-3.14-5.1-1.05-1.85-1.97-3.64-2.75-5.4-.8-1.74-1.38-3.37-1.77-4.9-.4-1.53-.47-2.78-.2-3.74.35-.86.9-1.83 1.64-2.87.73-1.04 1.6-2.03 2.55-2.95.96-.92 1.97-1.75 3.02-2.5 1.05-.73 2.1-1.24 3.14-1.5h1.6c.7.18 1.2.48 1.56.92.35.44.74.92 1.18 1.44 2.1 3.4 4.46 6.9 7.08 10.5.87 1.38.96 2.82.26 4.3-.17.28-.44.73-.78 1.4-.36.64-.73 1.32-1.12 2.02-.4.7-.7 1.36-.92 1.96-.22.6-.24 1-.06 1.18 2.27 3.15 4.8 5.9 7.6 8.26 2.8 2.36 5.55 4.9 8.25 7.6.44.18.8.18 1.05 0 .8-.44 1.67-.92 2.63-1.44.96-.52 1.92-1 2.88-1.44 1.32-.6 2.76-.52 4.34.26 1.74 1.23 3.5 2.43 5.3 3.6 1.8 1.2 3.52 2.4 5.18 3.62.53.43 1.1.96 1.7 1.56zm-1.18-17.56c.7 0 1.05-.35 1.05-1.05 0-7.85-2.76-14.54-8.26-20.04S37.64 0 29.78 0c-.7 0-1.05.35-1.05 1.05 0 .7.35 1.05 1.05 1.05 7.34 0 13.5 2.58 18.5 7.73C53.4 14.8 56 20.97 56 28.33c0 .68.35 1.03 1.05 1.03zm-8.4 0c.7 0 1.06-.35 1.06-1.05 0-5.58-1.96-10.25-5.9-14.02-3.75-3.92-8.42-5.9-14.02-5.9-.7 0-1.05.36-1.05 1.06 0 .7.35 1.05 1.05 1.05 4.9 0 9.1 1.74 12.6 5.23 3.48 3.5 5.23 7.7 5.23 12.58 0 .7.36 1.06 1.06 1.06zm-8.38 0c.7 0 1.05-.35 1.05-1.05 0-3.3-1.13-6.02-3.4-8.12-2.1-2.27-4.8-3.4-8.14-3.4-.7 0-1.05.34-1.05 1.04s.35 1.05 1.05 1.05c2.63 0 4.85.92 6.7 2.76 1.82 1.83 2.74 4.06 2.74 6.68 0 .7.35 1.06 1.05 1.06z"/></svg>
